trunk/WorldWind/resources/milstd2525/icons/ems/effalk---------.svg

<?xml version="1.0" encoding="UTF-8" standalone="no"?>
<!--
Copyright (C) 2012 United States Government as represented by the Administrator of the
National Aeronautics and Space Administration.
All Rights Reserved.
-->

<!--
MIL-STD-2525 tactical symbol icon image. During icon composition this image is multiplied by the desired frame color 
(e.g. black), then drawn on top of the frame and fill.
-->

<svg
   xmlns:dc="http://purl.org/dc/elements/1.1/"
   xmlns:cc="http://creativecommons.org/ns#"
   xmlns:rdf="http://www.w3.org/1999/02/22-rdf-syntax-ns#"
   xmlns:svg="http://www.w3.org/2000/svg"
   xmlns="http://www.w3.org/2000/svg"
   xmlns:sodipodi="http://sodipodi.sourceforge.net/DTD/sodipodi-0.dtd"
   xmlns:inkscape="http://www.inkscape.org/namespaces/inkscape"
   height="400px"
   viewBox="0 0 400 400"
   width="400px"
   id="svg2"
   version="1.1"
   inkscape:version="0.48.2 r9819"
   sodipodi:docname="effalk---------.svg">
  <metadata
     id="metadata18">
    <rdf:RDF>
      <cc:Work
         rdf:about="">
        <dc:format>image/svg+xml</dc:format>
        <dc:type
           rdf:resource="http://purl.org/dc/dcmitype/StillImage" />
      </cc:Work>
    </rdf:RDF>
  </metadata>
  <defs
     id="defs16" />
  <sodipodi:namedview
     pagecolor="#ffffff"
     bordercolor="#666666"
     borderopacity="1"
     objecttolerance="10"
     gridtolerance="10"
     guidetolerance="10"
     inkscape:pageopacity="0"
     inkscape:pageshadow="2"
     inkscape:window-width="640"
     inkscape:window-height="480"
     id="namedview14"
     showgrid="false"
     inkscape:zoom="0.59"
     inkscape:cx="200"
     inkscape:cy="200"
     inkscape:window-x="296"
     inkscape:window-y="85"
     inkscape:window-maximized="0"
     inkscape:current-layer="svg2" />
  <g
     transform="matrix(100,0,0,100,79,73)"
     id="g4"
     style="stroke:#000000;stroke-width:0.06;stroke-miterlimit:4;stroke-opacity:1;stroke-dasharray:0.12, 0.06;stroke-dashoffset:0">
    <path
       inkscape:connector-curvature="0"
       d="m 0.61522,0.610618 c 0,0.049492 0.069555,0.110008 0.12572,0.110008 l 0.00524,0 c 0.104878,0 0.108406,-0.085189 0.130961,-0.094291 l 0,-0.073339 c 0,-0.044657 -0.071291,-0.099531 -0.130961,-0.099531 -0.058236,0 -0.130961,0.053917 -0.130961,0.099531 z"
       style="fill:#ffffff;stroke:#000000;stroke-width:0.06;stroke-miterlimit:4;stroke-opacity:1;stroke-dasharray:0.12, 0.06;stroke-dashoffset:0"
       id="path6" />
    <path
       inkscape:connector-curvature="0"
       d="m 1.53195,0.584425 c 0,0.066886 0.05889,0.136201 0.12572,0.136201 l 0.00524,0 c 0.03979,0 0.06858,-0.015567 0.09046,-0.03526 C 1.76498,0.674929 1.79912,0.624835 1.79912,0.610618 l 0,-0.041905 c 0,-0.059618 -0.06928,-0.115248 -0.13621,-0.115248 -0.07374,0 -0.13096,0.059086 -0.13096,0.13096 z"
       style="fill:#ffffff;stroke:#000000;stroke-width:0.06;stroke-miterlimit:4;stroke-opacity:1;stroke-dasharray:0.12, 0.06;stroke-dashoffset:0"
       id="path8" />
    <path
       inkscape:connector-curvature="0"
       d="m 0.505213,0.982547 0.057622,0 0,1.089603 0.151917,0 0,-0.6391 0.068098,0 0,0.6391 0.146677,0 0,-1.089603 0.057622,0 0,0.408603 0.115251,0 0,-0.471462 -0.00598,-0.057532 -0.00974,-9.4e-5 c 0,-0.057583 -0.04166,-0.110008 -0.099531,-0.110008 l -0.481937,0 c -0.074244,0 -0.110008,0.086028 -0.110008,0.162394 l 0,0.476702 0.110008,0 z"
       style="fill:#ffffff;stroke:#000000;stroke-width:0.06;stroke-miterlimit:4;stroke-opacity:1;stroke-dasharray:0.12, 0.06;stroke-dashoffset:0"
       id="path10" />
    <path
       inkscape:connector-curvature="0"
       d="m 1.47433,1.0035 0,-0.010476 L 1.48909,0.97661 1.47957,1.01398 1.38438,1.35046 1.38004,1.37019 1.3688,1.38528 l 7.6e-4,0.02158 -0.05024,0.16677 0.1812,8.6e-4 0,0.49242 0.13096,0 0,-0.49242 0.06811,0 0,0.49242 0.13096,0 0,-0.49242 0.1781,0 L 1.97583,1.44246 1.97198,1.42257 1.8515,1.01398 1.84004,0.977539 1.85494,0.994335 1.85674,1.0035 c 0.05219,0.06004 0.13592,0.35621 0.21478,0.35621 l 0.01047,0 c 0.03069,0 0.05239,-0.02785 0.05239,-0.05762 l 0,-0.01572 C 2.13438,1.27406 2.01568,1.03638 2.00146,0.994976 1.98397,0.944036 1.95758,0.890767 1.93528,0.846385 1.90917,0.794448 1.90415,0.752051 1.82007,0.752051 l -0.30907,0 c -0.08513,0 -0.08942,0.045264 -0.11733,0.097445 C 1.37159,0.890763 1.34738,0.950008 1.33078,0.99615 1.31643,1.03607 1.20193,1.27295 1.20193,1.28637 l 0,0.01572 c 0,0.03269 0.01499,0.05762 0.04715,0.05762 l 0.02095,0 c 0.05875,0 0.15927,-0.3044 0.2043,-0.35621 z"
       style="fill:#ffffff;stroke:#000000;stroke-width:0.06;stroke-miterlimit:4;stroke-opacity:1;stroke-dasharray:0.12, 0.06;stroke-dashoffset:0"
       id="path12" />
  </g>
</svg>

<?xml version="1.0"?>
<!--
Copyright (C) 2012 United States Government as represented by the Administrator of the
National Aeronautics and Space Administration.
All Rights Reserved.
-->

<!DOCTYPE svg PUBLIC "-//W3C//DTD SVG 1.1//EN" "http://www.w3.org/Graphics/SVG/1.1/DTD/svg11.dtd" >
<!--
MIL-STD-2525 tactical symbol icon image. During icon composition this image is multiplied by the desired frame color 
(e.g. black), then drawn on top of the frame and fill.
-->
<svg xmlns:xlink="http://www.w3.org/1999/xlink" height="400px" viewBox="0 0 400 400" width="400px"><g transform="scale(100) translate(0.79 0.73)"><path d="M0.61522 0.610618 C0.61522 0.66011 0.684775 0.720626 0.74094 0.720626 L0.74618 0.720626     C0.851058 0.720626 0.854586 0.635437 0.877141 0.626335 L0.877141 0.552996     C0.877141 0.508339 0.80585 0.453465 0.74618 0.453465 C0.687944 0.453465     0.615219 0.507382 0.615219 0.552996 z" style="fill:rgb(255,255,255)"/><path d="M1.53195 0.584425 C1.53195 0.651311 1.59084 0.720626 1.65767 0.720626 L1.66291 0.720626     C1.7027 0.720626 1.73149 0.705059 1.75337 0.685366 C1.76498 0.674929     1.79912 0.624835 1.79912 0.610618 L1.79912 0.568713 C1.79912 0.509095 1.72984     0.453465 1.66291 0.453465 C1.58917 0.453465 1.53195 0.512551 1.53195 0.584425     z" style="fill:rgb(255,255,255)"/><path d="M0.505213 0.982547 L0.562835 0.982547 L0.562835 2.07215 L0.714752 2.07215 L0.714752     1.43305 L0.78285 1.43305 L0.78285 2.07215 L0.929527 2.07215 L0.929527 0.982547     L0.987149 0.982547 L0.987149 1.39115 L1.1024 1.39115 L1.1024 0.919688     L1.09642 0.862156 L1.08668 0.862062 C1.08668 0.804479 1.04502 0.752054 0.987149     0.752054 L0.505212 0.752054 C0.430968 0.752054 0.395204 0.838082 0.395204     0.914448 L0.395204 1.39115 L0.505212 1.39115 z" style="fill:rgb(255,255,255)"/><path d="M1.47433 1.0035 L1.47433 0.993024 L1.48909 0.97661 L1.47957 1.01398 L1.38438 1.35046     L1.38004 1.37019 L1.3688 1.38528 L1.36956 1.40686 L1.31932 1.57363 L1.50052     1.57449 L1.50052 2.06691 L1.63148 2.06691 L1.63148 1.57449 L1.69959 1.57449     L1.69959 2.06691 L1.83055 2.06691 L1.83055 1.57449 L2.00865 1.57449 L1.97583     1.44246 L1.97198 1.42257 L1.8515 1.01398 L1.84004 0.977539 L1.85494 0.994335     L1.85674 1.0035 C1.90893 1.06354 1.99266 1.35971 2.07152 1.35971 L2.08199     1.35971 C2.11268 1.35971 2.13438 1.33186 2.13438 1.30209 L2.13438 1.28637     C2.13438 1.27406 2.01568 1.03638 2.00146 0.994976 C1.98397 0.944036 1.95758     0.890767 1.93528 0.846385 C1.90917 0.794448 1.90415 0.752051 1.82007 0.752051     L1.511 0.752051 C1.42587 0.752051 1.42158 0.797315 1.39367 0.849496 C1.37159     0.890763 1.34738 0.950008 1.33078 0.99615 C1.31643 1.03607 1.20193 1.27295     1.20193 1.28637 L1.20193 1.30209 C1.20193 1.33478 1.21692 1.35971 1.24908     1.35971 L1.27003 1.35971 C1.32878 1.35971 1.4293 1.05531 1.47433 1.0035 z" style="fill:rgb(255,255,255)"/></g></svg>
